!!!COM: Mozart, Wolfgang Amadeus
!!!OTL: Musikalische Würfelspiele, Kontre-Tänze
!!!SCA: K<sup>6</sup> Anh. C30.01 (K<sup>3</sup> Anh. 294d)
**kern	**kern
*staff2	*staff2
*clefF4	*clefG2
*M2/4	*M2/4
*MM110	*MM110
*>[A,A1,A,A2,B]	*>[A,A1,A,A2,B]
*>norep[A,A2,B]	*>norep[A,A2,B]
*>A	*>A
=165	=165
4C	8cc
.	16ee
.	16cc
4r	8g
.	8g
=114	=114
4C	8gg
.	16aa
.	16gg
4r	16ff
.	16ee
.	16dd
.	16cc
=57	=57
8G	8ff
16GG	8ff
16AA	.
16BB	8dd
16C	.
16D	8dd
16BB	.
=139	=139
16C	8cc
16G	.
16E	8ee
16G	.
16C	4g
16G	.
16E	.
16G	.
=43	=43
4D	16dd
.	16cc#
.	16dd
.	16ee
4C 4D	16ff#
.	16gg
.	16aa
.	16ff#
=39	=39
4BB 4G	16gg
.	16ff#
.	16ee
.	16dd
4r	16cc
.	16b
.	16a
.	16g
=168	=168
4C	8ee
.	4cc
4D	.
.	16a
.	16f#
=115	=115
*>A1	*>A1
4GG	4g 4b 4gg
16G	4r
16F	.
16E	.
16D	.
=115:|!	=115:|!
*>A2	*>A2
4GG	4g 4b 4gg
16GG	4r
16AA	.
16BB	.
16C#	.
=144||	=144||
*>B	*>B
4D	8d
.	16f#
.	16a
4D	8dd
.	8ff#
=176	=176
16BB	8gg
16GG	.
16BB	8bb
16D	.
16G	4gg
16D	.
16BB	.
16GG	.
=135	=135
4C	8ee
.	8gg
4C	16ff
.	16ee
.	16dd
.	16cc
=19	=19
4GG	16dd
.	16b
.	16cc
.	16a
4r	16g
.	16gg
.	16ff
.	16dd
=31	=31
8C	8cc
8C	16cc
.	16ee
8C	16gg
.	16ee
8C	16gg
.	16ee
=48	=48
4C	8cc
.	16cc
.	16ee
4r	8gg
.	16gg
.	16ee
=108	=108
4G	16ff
.	16aa
.	16ff
.	16dd
4GG	16b
.	16dd
.	16b
.	16g
=47	=47
4C	4cc
4CC	4c
==	==
*-	*-
